public/icons/svg/megafone.svg

<svg fill="none" height="17" viewBox="0 0 21 17" width="21" xmlns="http://www.w3.org/2000/svg"><path d="m19.1756 5.12445-16.5056-5.0624965c-.2234-.06515884-.4589-.0774457-.68787-.0358891-.22897.0415567-.44513.1358166-.63138.2753266-.18626.139509-.3375.32044-.441762.528484-.104266.208045-.158697.437495-.158988.670205v13.50002c0 .3978.158035.7793.43934 1.0606.2813.2813.66284.4394 1.06066.4394.14344 0 .28614-.0205.42375-.061l7.82625-2.4018v.9628c0 .3978.158.7793.4393 1.0606s.6629.4394 1.0607.4394h3c.3978 0 .7794-.1581 1.0607-.4394s.4393-.6628.4393-1.0606v-2.8031l2.6756-.8204c.3097-.093.5813-.2831.7747-.5422s.2985-.5735.2997-.89682v-3.375c-.0014-.32318-.1066-.63737-.3-.89628s-.4649-.44885-.7744-.54185zm-8.6756 7.34435-8.25 2.5313v-13.50002l8.25 2.53125zm4.5 2.5313h-3v-1.4231l3-.9207zm3.75-5.06252h-.0103l-6.7397 2.07002v-7.51502l6.7397 2.0625h.0103v3.375z" fill="#f26a4b"/></svg>

<svg width="21" height="17" viewBox="0 0 21 17" fill="none" xmlns="http://www.w3.org/2000/svg">
<path d="M19.1756 5.12445L2.67 0.0619535C2.4466 -0.00320534 2.2111 -0.0154922 1.98213 0.0260644C1.75316 0.0676211 1.537 0.161881 1.35075 0.301391C1.16449 0.4409 1.01325 0.621831 0.908988 0.829875C0.804722 1.03792 0.750291 1.26737 0.75 1.50008V15.0001C0.75 15.3979 0.908035 15.7794 1.18934 16.0607C1.47064 16.342 1.85218 16.5001 2.25 16.5001C2.39344 16.5001 2.53614 16.4796 2.67375 16.4391L10.5 14.0373V15.0001C10.5 15.3979 10.658 15.7794 10.9393 16.0607C11.2206 16.342 11.6022 16.5001 12 16.5001H15C15.3978 16.5001 15.7794 16.342 16.0607 16.0607C16.342 15.7794 16.5 15.3979 16.5 15.0001V12.197L19.1756 11.3766C19.4853 11.2836 19.7569 11.0935 19.9503 10.8344C20.1437 10.5753 20.2488 10.2609 20.25 9.93758V6.56258C20.2486 6.2394 20.1434 5.92521 19.95 5.6663C19.7566 5.40739 19.4851 5.21745 19.1756 5.12445ZM10.5 12.4688L2.25 15.0001V1.50008L10.5 4.03133V12.4688ZM15 15.0001H12V13.577L15 12.6563V15.0001ZM18.75 9.93758H18.7397L12 12.0076V4.49258L18.7397 6.55508H18.75V9.93008V9.93758Z" fill="#F26A4B"/>
</svg>
